X:800
T:Steamboat quickstep
R:Jig
B:NE Fiddlers
S:tonyji~1.abc, irishf~4.abc
Z:Transcription:??, chords:Mike Long
M:6/8
L:1/8
K:A
e|\
"A"a2e c2A|Ace a2e|agf edc|"E"Bcd cBA|\
"A"a2e c2A|Ace a2e|\
"(D)"agf "A"edc|"E"edB "A"A2:|
|:B|\
"A"c2e efe|efe c2A|"D"d2f fga|\
fga f2e|\
"A"c2e efe|efe c2e|"D"agf "A"edc|"E"edB "A"A2:|
